X: 26095
T: McFadden's Handsome Daughter
R: reel
M: 4/4
K: Amajor
E3F A2cA|BABc ecBA|E3F A2af|ecBd cAAF|
E3F A2cA|BABc ecBA|E2FG A2af|ecBd cAA2||
aece fgaf|edcA BAFA|aece fgaf|edcB ABce|
aece aecA|B2cA BAFA|agfe fgaf|edcB ABcd||
e3f ec(3ccc|ecac bB(3BBB|ce(3eee aecA|EFAd cAAc|
e3f ec(3ccc|ecac bB(3BBB|cefg a3f|e2ce aecA||

